build/system/EmailOutline.svg

<svg xmlns="http://www.w3.org/2000/svg" fill="none" viewBox="0 0 24 24" focusable="false"><path d="M0 0H24V24H0z"/><path fill="#74767B" fill-rule="evenodd" d="M6 5C4.34 5 3 6.34 3 8L3 16C3 17.66 4.34 19 6 19L18 19C19.66 19 21 17.66 21 16L21 8C21 6.34 19.65 5 18 5L6 5ZM19.7 8.94677L15.3527 12.2223L17.9233 14.1564C18.2101 14.3722 18.2677 14.7798 18.0519 15.0666C17.836 15.3535 17.4285 15.4111 17.1417 15.1952L14.2724 13.0364L14.0965 13.1689C12.7961 14.1487 11.0039 14.1487 9.70352 13.1689L9.52765 13.0364L6.65835 15.1952C6.3715 15.4111 5.96399 15.3535 5.74815 15.0666C5.53232 14.7798 5.5899 14.3722 5.87676 14.1564L8.4473 12.2224L4.3 9.09745L4.3 16C4.3 16.94 5.06 17.7 6 17.7L18 17.7C18.94 17.7 19.7 16.94 19.7 16L19.7 8.94677ZM18 6.3C18.729 6.3 19.3497 6.75707 19.5917 7.40069L13.3142 12.1306C12.4769 12.7615 11.3231 12.7615 10.4858 12.1306L4.36818 7.52111C4.57461 6.81483 5.22634 6.3 6 6.3L18 6.3Z"/></svg>

<svg xmlns="http://www.w3.org/2000/svg" fill="none" viewBox="0 0 24 24" focusable="false"><path fill="#74767B" fill-rule="evenodd" d="M6 5C4.33 5 3 6.34 3 8v8c0 1.66 1.33 3 3 3h12c1.66 0 3-1.34 3-3V8c0-1.66-1.36-3-3-3zm13.7 3.94-4.35 3.28 2.57 1.93c.28.22.34.62.13.91-.22.29-.63.35-.91.13l-2.87-2.16-.18.13c-1.3.98-3.09.98-4.39 0l-.18-.13-2.87 2.16c-.28.22-.69.16-.91-.13a.653.653 0 0 1 .13-.91l2.57-1.93-4.15-3.13V16c0 .94.77 1.7 1.71 1.7h12c.93 0 1.7-.76 1.7-1.7zM18 6.29c.72 0 1.34.46 1.59 1.11l-6.28 4.73c-.84.63-1.99.63-2.83 0L4.36 7.52c.21-.71.86-1.23 1.64-1.23z"/></svg>
